X: 7
T: With Dauntless Courage
C: Teton Sioux band 1911-1914
N: Derived from sioux007.krn
O: South Dakota, U.S.A.
N: Teton Sioux Music by Frances Densmore, 1918
Z: transcribed to **kern format by Craig Sapp
L: 1/8
M: 2/4
Q: 1/4=58
K: G clef=bass
%%linebreak <none>
F [I:setbarnb 1]| 
F< E E3/ B,/ | 
E E E/ B,3/ ||  
[M:3/4]B,4B, F ||  
[M:2/4]F< E E3/ B,/ | 
E E E/ B,3/ | 
B,< B, A, G, | 
B, B,- B, A, | 
A,< A, G, E, | 
E, E,- E, E, ||  
[M:3/4]E,6 ||  
[M:2/4]F, E, E,3/ B,,/ ||  
[M:3/4]F, F, F,< E, B,,3/ B,,/ | 
B,,4-B,,3/ B,,/ | 
B,,4B, B, | 
F F F< E (E3/ B,/) ||  
[M:2/4]E E E/ B,3/ | 
E< B, A, G, | 
B, B, B,/ A,3/ | 
B,< A, G, F, | 
E, E,- E, E, ||  
[M:3/4]E,6 ||  
[M:2/4]F, E, E,3/ B,,/ ||  
[M:3/4]F, F, F, E, B,,3/ B,,/ ||  
[M:2/4]B,,4 | 
B,,2z2 |]  



